X:8913
T:La Escosa (XA 05)
C:Tradicional
S:Música Tradicional Asturiana, (C) Tello & Tito. Asturies, 2001.
S:http://pagina.de/MusTradAst <telloytito@asturies.org>
A:Asturies
Z:Métodu de Xuacu Amieva 05
M:2/8
L:1/8
Q:1/4=80
K:C
|: F D|E C|D C|F D|E C|D C|
|F F|F E|G G|G F/E/|F F|F E|G G|G F/E/|
|F F|F E/D/|E D/E/|C D/E/|C2|C2 :|"fin"
|: A A|A G|B B|B A|c c|c B/A/|B B|B A|
|c c|c B/A/|B B|B A/B/|G A/B/|G A/B/|G2|G2 :|
"rep. hasta fin"


